mono-glyphs/color-w.svg

<svg xmlns="http://www.w3.org/2000/svg" width="1024" height="1024" fill="none" viewBox="0 0 1024 1024">
  <g clip-path="url(#a)">
    <path fill="#fff" d="M324 603.233c-15 0-28.667 2.991-41 8.973a406.242 406.242 0 0 0-36.25 19.942A372.456 372.456 0 0 1 210 652.091c-12.667 5.982-26.667 8.972-42 8.972-20.667 0-40.333-4.985-59-14.956s-35.5-21.437-50.5-34.399c-20.333-17.615-35.167-37.806-44.5-60.573-9.333-22.766-14-47.444-14-74.033s3.667-53.094 11-79.517c7.333-26.422 16.333-51.599 27-75.529 11.667-25.924 25.167-51.017 40.5-75.279 15.333-24.262 32-47.361 50-69.297a671.307 671.307 0 0 1 52-56.584c18.333-17.781 38.5-33.651 60.5-47.61 37.667-23.93 77.75-42.21 120.25-54.84C403.75 5.816 447.333-.497 492-.497c42.333 0 84 5.484 125 16.452 41 10.968 80.167 26.422 117.5 46.364 45.667 24.927 86.417 54.008 122.25 87.244 35.833 33.235 66.167 70.127 91 110.676 24.833 40.548 43.75 84.336 56.75 131.365 13 47.029 19.5 96.634 19.5 148.814 0 31.906-2.42 63.564-7.25 94.972-4.83 31.408-11.92 62.401-21.25 92.978-7.333 23.598-16.583 47.279-27.75 71.042-11.167 23.763-24.25 46.53-39.25 68.299a490.323 490.323 0 0 1-50 61.321c-18.333 19.111-38.25 35.645-59.75 49.604-21.5 13.959-44.5 24.927-69 32.907-24.5 7.97-50.25 11.96-77.25 11.96-15 0-29.75-1.32-44.25-3.99-14.5-2.66-28.75-6.48-42.75-11.46-29.333-10.303-54.5-23.103-75.5-38.391-21-15.288-38.417-33.07-52.25-53.343-13.833-20.274-24.333-43.041-31.5-68.3-7.167-25.259-11.75-53.012-13.75-83.256a1208.15 1208.15 0 0 1-2.75-54.84c-.5-18.279-2.917-36.393-7.25-54.341a650.465 650.465 0 0 0-4.5-15.953c-1.667-5.65-4.333-10.303-8-13.959-3.667-3.988-8.167-7.478-13.5-10.469a76.149 76.149 0 0 0-17-6.979c-6-1.662-12.083-2.909-18.25-3.74-6.167-.83-11.917-1.246-17.25-1.246Zm348.5 356.455c25 0 48.833-4.736 71.5-14.208 22.667-9.472 43.667-22.017 63-37.639 26.333-21.27 49.167-46.365 68.5-75.28s35.333-59.742 48-92.479c12.667-32.737 22-66.472 28-101.204 6-34.731 9-68.548 9-101.451 0-46.198-5.75-89.905-17.25-131.117-11.5-41.213-28.25-79.517-50.25-114.914-22-35.396-48.833-67.552-80.5-96.467-31.667-28.915-67.667-54.341-108-76.277C672.167 101.037 638 87.245 602 77.274c-36-9.97-72.667-14.956-110-14.956-46 0-89.083 7.312-129.25 21.936-40.167 14.624-76.917 34.814-110.25 60.572-33.333 25.757-63.167 56.003-89.5 90.734-26.333 34.731-48.5 72.205-66.5 112.421a436.421 436.421 0 0 0-23.25 62.816C67.083 432.4 64 454.501 64 477.102c0 17.283 2.667 32.987 8 47.112 5.333 14.126 14.5 27.005 27.5 38.638 3.667 3.323 8.25 6.979 13.75 10.967 5.5 3.988 11.25 7.727 17.25 11.217s12 6.481 18 8.974c6 2.492 11.5 3.74 16.5 3.74 9.333 0 19.333-3.075 30-9.224 10.667-6.149 22.417-12.796 35.25-19.942 12.833-7.146 26.917-13.792 42.25-19.941 15.333-6.149 32.5-9.223 51.5-9.223 10.333 0 20.667.914 31 2.742 10.333 1.827 20.333 4.238 30 7.229 21.667 6.98 38.333 16.95 50 29.912 11.667 12.962 20.25 27.835 25.75 44.619s8.917 35.064 10.25 54.839a5656.343 5656.343 0 0 1 3.75 60.573 647.913 647.913 0 0 0 6.5 61.82c3.167 20.607 9.25 40.132 18.25 58.578 9 18.446 22 35.313 39 50.601 17 15.288 39.833 27.918 68.5 37.889 21.333 7.645 43.167 11.466 65.5 11.466ZM448 238.302c0-13.294 4.667-24.595 14-33.901 9.333-9.306 20.667-13.959 34-13.959 13.333 0 24.667 4.653 34 13.959 9.333 9.306 14 20.607 14 33.901 0 13.294-4.667 24.595-14 33.901-9.333 9.305-20.667 13.959-34 13.959-13.333 0-24.667-4.654-34-13.959-9.333-9.306-14-20.607-14-33.901Zm192 63.813c0-13.294 4.667-24.595 14-33.901 9.333-9.306 20.667-13.959 34-13.959 13.333 0 24.667 4.653 34 13.959 9.333 9.306 14 20.607 14 33.901 0 13.294-4.667 24.595-14 33.901-9.333 9.305-20.667 13.959-34 13.959-13.333 0-24.667-4.654-34-13.959-9.333-9.306-14-20.607-14-33.901Zm112 143.579c0-13.294 4.667-24.595 14-33.9 9.333-9.306 20.667-13.959 34-13.959 13.333 0 24.667 4.653 34 13.959 9.333 9.305 14 20.606 14 33.9 0 13.294-4.667 24.595-14 33.901-9.333 9.306-20.667 13.959-34 13.959-13.333 0-24.667-4.653-34-13.959-9.333-9.306-14-20.607-14-33.901Zm0 191.439c0-13.294 4.667-24.595 14-33.9 9.333-9.306 20.667-13.959 34-13.959 13.333 0 24.667 4.653 34 13.959 9.333 9.305 14 20.606 14 33.9 0 13.294-4.667 24.595-14 33.901-9.333 9.306-20.667 13.959-34 13.959-13.333 0-24.667-4.653-34-13.959-9.333-9.306-14-20.607-14-33.901ZM624 764.76c0-13.295 4.667-24.595 14-33.901 9.333-9.306 20.667-13.958 34-13.958 13.333 0 24.667 4.652 34 13.958 9.333 9.306 14 20.606 14 33.901 0 13.294-4.667 24.594-14 33.9-9.333 9.306-20.667 13.96-34 13.96-13.333 0-24.667-4.654-34-13.96-9.333-9.306-14-20.606-14-33.9Z"/>
  </g>
  <defs>
    <clipPath id="a">
      <path fill="#fff" d="M0 0h1024v1024H0z"/>
    </clipPath>
  </defs>
</svg>

<svg width="1024" height="1024" viewBox="0 0 1024 1024" fill="none" xmlns="http://www.w3.org/2000/svg">
<g clip-path="url(#clip0_47_1351)">
<mask id="mask0_47_1351" style="mask-type:luminance" maskUnits="userSpaceOnUse" x="0" y="0" width="1024" height="1024">
<path d="M1024 0H0V1024H1024V0Z" fill="white"/>
</mask>
<g mask="url(#mask0_47_1351)">
<path d="M324 603.233C309 603.233 295.333 606.224 283 612.206C270.667 618.189 258.583 624.836 246.75 632.148C234.917 639.46 222.667 646.107 210 652.09C197.333 658.072 183.333 661.063 168 661.063C147.333 661.063 127.667 656.078 109 646.107C90.3333 636.136 73.5 624.67 58.5 611.708C38.1667 594.093 23.3333 573.902 14 551.135C4.66667 528.369 0 503.691 0 477.102C0 450.513 3.66667 424.008 11 397.585C18.3333 371.163 27.3333 345.986 38 322.056C49.6667 296.132 63.1667 271.039 78.5 246.777C93.8333 222.515 110.5 199.416 128.5 177.48C144.833 157.538 162.167 138.677 180.5 120.896C198.833 103.115 219 87.2445 241 73.2853C278.667 49.3555 318.75 31.0757 361.25 18.446C403.75 5.81633 447.333 -0.498535 492 -0.498535C534.333 -0.498535 576 4.9854 617 15.9533C658 26.9211 697.167 42.3759 734.5 62.3174C780.167 87.2444 820.917 116.326 856.75 149.562C892.583 182.797 922.917 219.689 947.75 260.238C972.583 300.786 991.5 344.574 1004.5 391.603C1017.5 438.632 1024 488.237 1024 540.417C1024 572.323 1021.58 603.981 1016.75 635.389C1011.92 666.797 1004.83 697.789 995.5 728.366C988.167 751.964 978.917 775.645 967.75 799.408C956.583 823.171 943.5 845.939 928.5 867.708C913.5 889.477 896.833 909.917 878.5 929.028C860.167 948.139 840.25 964.674 818.75 978.633C797.25 992.592 774.25 1003.56 749.75 1011.54C725.25 1019.51 699.5 1023.5 672.5 1023.5C657.5 1023.5 642.75 1022.18 628.25 1019.51C613.75 1016.85 599.5 1013.03 585.5 1008.05C556.167 997.747 531 984.947 510 969.659C489 954.371 471.583 936.589 457.75 916.316C443.917 896.042 433.417 873.275 426.25 848.016C419.083 822.757 414.5 795.004 412.5 764.76C411.167 746.48 410.25 728.2 409.75 709.92C409.25 691.641 406.833 673.527 402.5 655.579C401.167 650.594 399.667 645.277 398 639.626C396.333 633.976 393.667 629.323 390 625.667C386.333 621.679 381.833 618.189 376.5 615.198C371.167 612.206 365.5 609.88 359.5 608.218C353.5 606.556 347.417 605.31 341.25 604.479C335.083 603.649 329.333 603.233 324 603.233ZM672.5 959.688C697.5 959.688 721.333 954.952 744 945.48C766.667 936.008 787.667 923.462 807 907.84C833.333 886.57 856.167 861.476 875.5 832.561C894.833 803.646 910.833 772.819 923.5 740.082C936.167 707.345 945.5 673.61 951.5 638.878C957.5 604.147 960.5 570.329 960.5 537.426C960.5 491.228 954.75 447.522 943.25 406.31C931.75 365.097 915 326.793 893 291.396C871 256 844.167 223.844 812.5 194.929C780.833 166.014 744.833 140.588 704.5 118.652C672.167 101.037 638 87.2444 602 77.2736C566 67.3028 529.333 62.3174 492 62.3174C446 62.3174 402.917 69.6294 362.75 84.2532C322.583 98.8773 285.833 119.068 252.5 144.826C219.167 170.583 189.333 200.829 163 235.56C136.667 270.291 114.5 307.765 96.5 347.981C87.1667 368.254 79.4167 389.193 73.25 410.797C67.0833 432.4 64 454.501 64 477.102C64 494.385 66.6667 510.089 72 524.214C77.3333 538.34 86.5 551.218 99.5 562.851C103.167 566.174 107.75 569.831 113.25 573.819C118.75 577.807 124.5 581.546 130.5 585.036C136.5 588.526 142.5 591.517 148.5 594.01C154.5 596.502 160 597.749 165 597.749C174.333 597.749 184.333 594.675 195 588.526C205.667 582.377 217.417 575.73 230.25 568.584C243.083 561.438 257.167 554.792 272.5 548.643C287.833 542.494 305 539.42 324 539.42C334.333 539.42 344.667 540.334 355 542.162C365.333 543.989 375.333 546.399 385 549.39C406.667 556.37 423.333 566.341 435 579.303C446.667 592.265 455.25 607.138 460.75 623.922C466.25 640.706 469.667 658.986 471 678.761C472.333 698.537 473.583 718.727 474.75 739.334C475.917 759.941 478.083 780.546 481.25 801.153C484.417 821.76 490.5 841.285 499.5 859.731C508.5 878.177 521.5 895.045 538.5 910.333C555.5 925.621 578.333 938.251 607 948.222C628.333 955.867 650.167 959.688 672.5 959.688ZM448 238.302C448 225.008 452.667 213.707 462 204.401C471.333 195.095 482.667 190.442 496 190.442C509.333 190.442 520.667 195.095 530 204.401C539.333 213.707 544 225.008 544 238.302C544 251.596 539.333 262.897 530 272.203C520.667 281.508 509.333 286.162 496 286.162C482.667 286.162 471.333 281.508 462 272.203C452.667 262.897 448 251.596 448 238.302ZM640 302.115C640 288.821 644.667 277.52 654 268.214C663.333 258.908 674.667 254.255 688 254.255C701.333 254.255 712.667 258.908 722 268.214C731.333 277.52 736 288.821 736 302.115C736 315.409 731.333 326.71 722 336.016C712.667 345.321 701.333 349.975 688 349.975C674.667 349.975 663.333 345.321 654 336.016C644.667 326.71 640 315.409 640 302.115ZM752 445.694C752 432.4 756.667 421.099 766 411.794C775.333 402.488 786.667 397.834 800 397.834C813.333 397.834 824.667 402.488 834 411.794C843.333 421.099 848 432.4 848 445.694C848 458.988 843.333 470.289 834 479.595C824.667 488.901 813.333 493.554 800 493.554C786.667 493.554 775.333 488.901 766 479.595C756.667 470.289 752 458.988 752 445.694ZM752 637.133C752 623.839 756.667 612.538 766 603.233C775.333 593.927 786.667 589.274 800 589.274C813.333 589.274 824.667 593.927 834 603.233C843.333 612.538 848 623.839 848 637.133C848 650.427 843.333 661.728 834 671.034C824.667 680.34 813.333 684.993 800 684.993C786.667 684.993 775.333 680.34 766 671.034C756.667 661.728 752 650.427 752 637.133ZM624 764.76C624 751.465 628.667 740.165 638 730.859C647.333 721.553 658.667 716.9 672 716.9C685.333 716.9 696.667 721.553 706 730.859C715.333 740.165 720 751.465 720 764.76C720 778.054 715.333 789.354 706 798.66C696.667 807.966 685.333 812.619 672 812.619C658.667 812.619 647.333 807.966 638 798.66C628.667 789.354 624 778.054 624 764.76Z" fill="white"/>
</g>
</g>
<defs>
<clipPath id="clip0_47_1351">
<rect width="1024" height="1024" fill="white"/>
</clipPath>
</defs>
</svg>
